X: 1042
T: The Gun-Fleet.
%R: hornpipe, reel
B: Henry Playford "Apollo's Banquet", London 1687 (5th Edition)
F: https://archive.org/details/apollosbanquetco01rugg
Z: 2017 John Chambers <jc:trillian.mit.edu>
N: Bar 3 has an extra 8th note; not fixed.
M: C|
L: 1/8
K: F
% - - - - - - - - - -
AB |\
c>c f>g (ag2) c | (df2) F AG2 (F/E/) |\
c/c/d3e (fd2) A | c3E F3 :|
|: (f/e/) |\
d>d d>^c (d<f) d(c/B/) | c>d e>f (ge2) (d/c/) |\
f>g a(g/a/) b>(a d)>c | d(e/f/) G>F F2 |]
% - - - - - - - - - -

%%sep 1 1 500
%%sep 1 1 500

